X: 9
T: Swansea
T: Pibddawns Gw\^yr Wrecsam
T: The Men Of Wrexham's Hornpipe
M: 4/4
L: 1/8
R: hornpipe
F: http://www.thesession.org/tunes/display/9394
K: Gmaj
|: d>c | B2 g2 g>dB>G | c2 e2 e2 g>e | d>Bd>B e>dc>B | A>Bc>A G>FE>D |
G2 g2 g>dB>G | c2 e2 e2 g2 | d>Bd>B e>cA>F | G2 G2 G2 :|
|: d>c | B>GB>G B2 d2 | e>ce>c e2 g2 | d>Bd>B e>dc>B | A>Bc>A G>FE>D |
B>GB>G B2 d2 | e>ce>c e2 g2 | d>Bd>B e>cA>F | G2 G2 G2 :|

%%sep 2 1 500

